packages/tokens/icons/condition/size16Px.svg

<svg viewBox="0 0 16 16" fill="none" xmlns="http://www.w3.org/2000/svg" width="1em" height="1em"><path d="M3.49997 1.5H2.5C1.94772 1.5 1.5 1.94772 1.5 2.5L1.5 13.5C1.5 14.0523 1.94772 14.5 2.5 14.5H3.49997" stroke="currentColor" stroke-linecap="round"/><path d="M12.5 1.5H13.5C14.0523 1.5 14.5 1.94772 14.5 2.5L14.5 13.5C14.5 14.0523 14.0523 14.5 13.5 14.5H12.5" stroke="currentColor" stroke-linecap="round"/><path d="M5.5 4.5C5.5 7.6653 5.5 11.5 5.5 11.5M8.5 11.5L8.5 5.5C8.5 4.94772 8.94721 4.5 9.49949 4.5C10.0614 4.5 10.7908 4.5 11.5 4.5M10.5 8.5C9.43477 8.5 8.77231 8.5 8.77231 8.5" stroke="currentColor" stroke-linecap="round"/></svg>

<svg xmlns="http://www.w3.org/2000/svg" fill="none" viewBox="0 0 16 16" width="1em" height="1em"><path stroke="currentColor" stroke-linecap="round" d="M3.5 1.5h-1a1 1 0 0 0-1 1v11a1 1 0 0 0 1 1h1m9-13h1a1 1 0 0 1 1 1v11a1 1 0 0 1-1 1h-1m-7-10v7m3 0v-6a1 1 0 0 1 1-1h2m-1 4H8.772"/></svg>
